package/converter/svg/light/z.svg

<svg xmlns="http://www.w3.org/2000/svg" viewBox="0 0 384 512"><!-- Font Awesome Pro 6.0.0-alpha2 by @fontawesome - https://fontawesome.com License - https://fontawesome.com/license (Commercial License) --><path d="M368 480H16C9.781 480 4.094 476.375 1.5 470.719C-1.125 465.094 -0.25 458.406 3.781 453.656L333.5 64H16C7.156 64 0 56.844 0 48S7.156 32 16 32H368C374.219 32 379.906 35.625 382.5 41.281C385.125 46.906 384.25 53.594 380.219 58.344L50.5 448H368C376.844 448 384 455.156 384 464S376.844 480 368 480Z"/></svg>

<svg xmlns="http://www.w3.org/2000/svg" viewBox="0 0 384 512"><!--! Font Awesome Pro 6.6.0 by @fontawesome - https://fontawesome.com License - https://fontawesome.com/license (Commercial License) Copyright 2024 Fonticons, Inc. --><path d="M0 48c0-8.8 7.2-16 16-16l352 0c6.2 0 11.9 3.6 14.5 9.3s1.7 12.3-2.3 17.1L50.5 448 368 448c8.8 0 16 7.2 16 16s-7.2 16-16 16L16 480c-6.2 0-11.9-3.6-14.5-9.3s-1.7-12.3 2.3-17.1L333.5 64 16 64C7.2 64 0 56.8 0 48z"/></svg>
